assets/payQiwi.svg

<svg width="92" height="41" viewBox="0 0 92 41" fill="none" xmlns="http://www.w3.org/2000/svg">
<g clip-path="url(#clip0)">
<path d="M37.203 39.5777C37.0279 39.0772 36.7106 38.7359 36.4808 38.2922C35.9228 37.53 35.2663 36.8702 34.6097 36.2103C34.38 36.1307 34.2815 35.9032 34.0626 35.8122C33.9204 35.6188 33.6906 35.5164 33.5046 35.3685C33.1326 35.0727 32.7277 34.8224 32.3119 34.5722C31.5241 34.0489 30.5503 33.7189 29.5874 33.3777C28.5479 33.116 27.4537 32.9226 26.3157 32.7633C25.1887 32.5927 24.0617 32.4334 23.2082 31.967C22.7158 31.8191 22.3547 31.5347 21.928 31.3072C21.5341 31.0342 21.1074 30.8066 20.7791 30.4653C20.3742 30.2151 20.1226 29.7941 19.8053 29.4529C19.6958 29.2253 19.5098 29.0888 19.4223 28.8385C19.3129 28.793 19.2801 28.6565 19.2144 28.5769C19.1378 28.4859 19.1378 28.3039 19.0065 28.2697C18.9408 28.7361 18.9627 29.2936 19.0065 29.7714C19.0612 29.9762 19.0831 30.2264 19.1378 30.4312C19.1706 30.6132 19.3348 30.909 19.2691 31.0455C15.8552 30.8635 13.3604 29.7373 11.1939 28.2583C10.1216 27.5189 9.2025 26.6202 8.34903 25.6532C7.977 25.1185 7.57215 24.6066 7.24389 24.015C6.90469 23.4348 6.6202 22.775 6.31383 22.1607C5.81049 20.8297 5.33999 19.4645 5.16492 17.7922C4.93514 16.2337 4.98985 14.2428 5.32905 12.798C5.44941 12.0017 5.70108 11.3305 5.91991 10.6365C6.06216 10.318 6.21535 9.99947 6.34665 9.66956C6.53266 9.39653 6.63114 9.02111 6.86092 8.78221C7.48461 7.56495 8.41468 6.65485 9.36663 5.77888C10.3952 4.99392 11.566 4.35685 12.9775 3.97006C14.3343 3.65152 16.1835 3.59464 17.6497 3.92455C20.6259 4.56162 22.869 5.94952 24.751 7.72422C26.6549 9.46478 28.1212 11.6718 29.1278 14.3566C30.1673 16.9049 30.5284 20.8752 29.5983 23.7647C29.2154 23.5372 28.8324 23.3211 28.4494 23.1049C27.9899 22.9684 27.5412 22.8091 27.0051 22.7522C26.3595 22.7409 25.7249 22.7522 25.3091 22.9684C26.1516 22.8774 26.83 23.1163 27.3552 23.3211C27.6616 23.4462 27.8367 23.5258 28.0774 23.6737C28.5479 23.9581 28.9637 24.2198 29.3138 24.6066C30.3095 25.5167 31.0208 26.7225 31.36 28.3152C31.36 28.3607 31.4147 28.3494 31.4037 28.2697C31.4475 28.2583 31.4694 28.2242 31.4913 28.1787C31.546 28.1105 31.6116 28.0422 31.6663 27.9626C31.7758 27.826 31.8852 27.6895 31.9618 27.5189C32.1916 27.2345 32.3776 26.9159 32.5526 26.586C32.9575 25.9717 33.2639 25.2664 33.614 24.5952C34.2158 23.1618 34.7082 21.6146 35.0146 19.8627C35.6273 15.972 34.8942 12.2861 33.614 9.56717C32.301 6.82549 30.4627 4.62988 28.0883 2.98032C25.692 1.34214 22.8909 0.136261 19.0393 0.0224986C19.0174 -0.0571351 18.9846 0.0338749 18.908 0.0224986C16.8728 -0.0457589 15.2315 0.250024 13.6012 0.682321C12.8462 0.943975 12.0584 1.1715 11.3909 1.52416C10.625 1.78582 10.0122 2.21811 9.31192 2.53665C9.06026 2.78693 8.67729 2.91207 8.41468 3.15097C8.07548 3.32161 7.82382 3.59464 7.48461 3.76528C6.93752 4.26584 6.35759 4.70951 5.82144 5.22144C5.29622 5.722 4.83666 6.29081 4.33333 6.81412C4.25674 6.99614 4.12543 7.12128 3.99413 7.25779C3.90659 7.42844 3.79717 7.57633 3.65493 7.70147C3.60022 7.90624 3.42515 7.98587 3.3595 8.19064C3.21725 8.30441 3.18442 8.53193 3.02029 8.63432C2.87805 8.99836 2.62638 9.26001 2.46225 9.6013C2.2653 9.93121 2.11211 10.2953 1.91516 10.6138C1.60878 11.3532 1.28052 12.0699 1.02886 12.8663C0.766251 13.6399 0.547411 14.459 0.394224 15.3463C0.230095 16.1768 0.0769071 17.2575 0.098791 18.1335C-0.0106286 18.452 0.0769071 19.0436 0.098791 19.419C0.098791 19.4873 0.0550232 19.51 0.0550232 19.5555C0.0550232 19.9764 0.164443 20.4884 0.186327 20.75C0.273862 21.717 0.437992 22.6157 0.700599 23.4007C0.864728 24.2767 1.21487 24.9592 1.46654 25.7442C1.8495 26.404 2.11211 27.189 2.57167 27.7805C2.91088 28.4745 3.39232 29.0206 3.85188 29.5894C4.34427 30.1354 4.83666 30.6929 5.42753 31.1365C6.51078 32.1149 7.78005 32.8999 9.16968 33.5711C11.7629 34.8793 15.6364 35.7325 19.1159 35.5164C20.0022 35.3913 20.8995 35.2775 21.7092 35.0727C22.4532 34.7883 23.3176 34.6177 24.2149 34.5039C26.261 34.3674 28.0336 34.5608 29.6093 35.0386C31.2068 35.4823 32.5855 36.1535 33.7781 37.0294C34.4128 37.4162 34.938 37.9168 35.4742 38.3946C36.0213 38.8838 36.4589 39.4867 36.9623 40.0328C37.0279 40.2375 37.1592 40.3854 37.2577 40.5674C37.389 40.7153 37.3233 41.0566 37.6407 41.0111C37.8376 40.8063 37.6078 40.5106 37.5969 40.2603C37.3999 40.0441 37.3562 39.7597 37.203 39.5777Z" fill="#FCB316"/>
<path d="M29.2589 27.4736C29.2152 27.4736 29.2042 27.5077 29.1714 27.5191C29.0948 27.6897 29.1276 27.9627 29.1714 28.1334C29.4012 28.6226 29.4778 29.2596 29.9811 29.4644C30.2218 29.3848 30.1999 29.0207 30.189 28.6681C30.0796 28.2358 29.9264 27.849 29.6747 27.5646C29.4997 27.4963 29.3793 27.3826 29.2589 27.4736ZM26.2827 28.7136C26.2827 28.6908 26.2499 28.6681 26.239 28.7136C25.8232 28.6567 25.6809 28.8956 25.473 29.0662C25.1119 30.056 25.6919 31.0229 26.7095 31.0116C27.1143 30.9092 27.366 30.6362 27.4316 30.1697C27.3769 29.3393 27.0377 28.8046 26.2827 28.7136Z" fill="#FCB316"/>
<path d="M50.8133 25.5623C50.9774 26.279 51.3276 26.791 51.7215 27.2688C52.1154 27.7466 52.575 28.1447 53.133 28.4405C53.6582 28.7818 54.2272 29.0662 54.8837 29.2596C55.201 29.3734 55.5074 29.5099 55.9013 29.5554C56.1749 29.7147 56.5031 29.7943 56.525 30.2038C56.5141 30.693 56.1968 30.875 55.7919 30.966C55.3871 30.875 54.8837 30.8864 54.5445 30.7271C53.6911 30.6248 53.0017 30.3404 52.2795 30.0787C50.9009 29.5213 49.741 28.7136 48.7781 27.7238C48.5812 27.3825 48.3076 27.1095 48.0997 26.7796C47.8918 26.4497 47.7496 26.0515 47.5307 25.7216C45.8457 25.4941 44.6968 24.6977 43.6901 23.7763C42.76 22.6728 42.016 21.3531 41.7096 19.6012C41.3485 17.9175 41.4579 15.8129 41.8847 14.1861C42.8147 11.0349 44.7624 8.94163 48.4389 8.65723C49.4565 8.69136 50.3428 8.81649 51.1525 9.13503C51.9732 9.44219 52.75 10.011 53.3628 10.6026C53.4175 10.6481 53.4394 10.6594 53.4722 10.7163C53.6035 10.9097 53.9208 11.1828 54.0959 11.4217C54.1287 11.4672 54.1178 11.5468 54.1506 11.6037C54.2163 11.7061 54.3147 11.7516 54.3804 11.8426C54.4132 11.8995 54.4023 11.9677 54.4351 12.0132C54.4789 12.0815 54.5336 12.1839 54.5992 12.309C54.6211 12.3545 54.6977 12.3886 54.7087 12.4228C54.8071 12.6162 54.8509 12.8551 54.9384 13.0712C55.026 13.2987 55.1463 13.4921 55.2229 13.7197C55.4418 14.3909 55.584 15.1872 55.6716 16.0063C55.8904 18.3725 55.4418 20.4885 54.5992 22.0584C54.2053 22.8775 53.6582 23.5487 53.0127 24.1175C52.4218 24.766 51.6121 25.1528 50.8133 25.5623ZM48.0997 10.7505C47.6073 10.7846 47.3119 11.0235 46.907 11.16C46.6444 11.4103 46.3162 11.6037 46.1192 11.9222C45.791 12.1156 45.7034 12.5479 45.4408 12.7982C45.222 13.367 45.0141 14.0041 44.8718 14.7435C44.7405 15.4716 44.653 16.2907 44.6421 17.0984C44.6311 19.1234 45.0469 21.137 45.8238 22.3315C46.2833 22.9117 46.8414 23.3895 47.5198 23.7421C47.9137 23.7763 48.2201 23.9128 48.6468 23.9242C48.8875 23.8331 49.2814 23.9242 49.4346 23.7421C49.7848 23.7649 49.8614 23.526 50.1677 23.5032C50.3319 23.3326 50.5069 23.1961 50.7367 23.0937C50.9446 22.8548 51.1416 22.6159 51.3604 22.3884C51.4698 22.2177 51.5355 21.9788 51.6996 21.8537C52.6844 19.897 52.7938 16.3134 52.1482 14.0382C51.9075 13.2077 51.5683 12.5365 51.1853 11.9791C50.7696 11.5354 50.2772 11.16 49.7191 10.8642C49.2705 10.7618 48.8438 10.6367 48.2529 10.6936C48.2201 10.6936 48.1872 10.705 48.1982 10.7505C48.1763 10.7505 48.1435 10.7505 48.0997 10.7505ZM60.0374 9.1009C60.9237 9.13503 61.9632 9.02127 62.751 9.15778C62.9261 9.44219 62.8604 9.78348 62.8604 10.102C62.9261 14.4136 62.8604 19.0437 62.8604 23.4463C62.8604 23.799 62.8714 24.1631 62.8604 24.5043C62.8495 24.8001 62.9261 25.1187 62.751 25.3917C62.3571 25.4941 61.7881 25.4486 61.2848 25.4486C60.7486 25.4486 60.2234 25.5282 59.8733 25.3348C59.7748 20.1245 59.7748 14.5046 59.8733 9.28292C59.8952 9.19191 59.9499 9.13503 60.0374 9.1009ZM66.8214 9.1009H69.4803C69.721 9.44219 69.7976 9.95412 69.8742 10.4547C70.673 13.6173 71.4608 16.7912 72.1939 20.0335C72.369 20.0562 72.3143 19.8401 72.369 19.7377C72.4456 19.6581 72.4018 19.4647 72.4784 19.385C72.5112 19.1234 72.6644 18.9869 72.6535 18.6797C72.8504 18.2815 72.9161 17.7355 73.1021 17.3259C73.3319 16.3703 73.6383 15.483 73.9009 14.5615C74.1525 13.6059 74.4917 12.7413 74.6887 11.7402C75.0607 10.9325 75.1483 9.82898 75.5969 9.1009H76.7239C77.1287 9.89724 77.2819 10.9552 77.6321 11.8084C77.8619 12.7641 78.1792 13.6286 78.4199 14.5729C78.9779 16.4045 79.5579 18.2133 80.0612 20.1017C80.291 19.7491 80.291 19.1575 80.4551 18.748C80.5536 18.2815 80.6411 17.8037 80.7943 17.3942C81.232 15.5285 81.6478 13.6514 82.1511 11.8653C82.3371 10.9325 82.5231 9.97687 82.8295 9.15778C83.486 9.0554 84.4927 9.0554 85.1492 9.15778C85.2039 9.85173 84.8975 10.6026 84.7006 11.2169C84.5912 11.9677 84.3286 12.5479 84.1863 13.276C83.7815 14.607 83.4751 16.0177 83.0593 17.3373C82.742 18.748 82.3152 20.0449 81.987 21.4555C81.7681 22.104 81.6149 22.8207 81.418 23.5146C81.1992 24.1517 81.1226 24.9366 80.7943 25.4599H79.2077C78.8029 24.7205 78.6606 23.7194 78.2995 22.9344C77.5117 20.3406 76.6364 17.8492 75.8704 15.2327C75.6078 15.5171 75.6078 16.0973 75.4218 16.4613C75.3014 16.905 75.1811 17.3487 75.0279 17.7582C74.809 18.6569 74.4808 19.4192 74.2948 20.3406C73.9775 21.1483 73.7477 22.0471 73.507 22.9344C73.1787 23.708 73.0583 24.6977 72.6535 25.4031C72.2377 25.5396 71.5812 25.4258 71.0669 25.4599C70.673 24.9935 70.6292 24.1517 70.3885 23.5146C70.2025 22.8548 70.0712 22.1267 69.8305 21.5124C69.5241 20.079 69.0645 18.8162 68.7581 17.3942C68.3533 16.0745 68.0031 14.698 67.6311 13.3329C67.4232 12.6844 67.27 11.9905 67.0621 11.3306C66.9637 10.6253 66.5041 9.98825 66.6682 9.21466C66.6901 9.15778 66.7558 9.12365 66.8214 9.1009ZM89.154 9.1009C90.0403 9.13503 91.0688 9.02127 91.8676 9.15778C92.0645 9.7721 91.977 10.4319 91.977 11.0917V23.435C91.977 24.1062 92.0536 24.7546 91.8676 25.3803C91.2548 25.4486 90.3576 25.4827 89.6026 25.4372C89.3837 25.4258 89.1211 25.4941 88.9789 25.3234C88.7819 24.7091 88.8695 24.0607 88.8695 23.3781V11.16C88.8695 10.4205 88.8038 9.70384 88.9789 9.21466C89.0227 9.15778 89.0883 9.12365 89.154 9.1009Z" fill="#0269B3"/>
</g>
<defs>
<clipPath id="clip0">
<rect width="92" height="41" fill="white"/>
</clipPath>
</defs>
</svg>

<svg xmlns="http://www.w3.org/2000/svg" width="92" height="41" fill="none" xmlns:v="https://vecta.io/nano"><g clip-path="url(#A)"><g fill="#fcb316"><path d="M37.203 39.578c-.175-.5-.492-.842-.722-1.285-.558-.762-1.215-1.422-1.87-2.082-.23-.08-.328-.307-.547-.398-.142-.193-.372-.296-.558-.444-.372-.296-.777-.546-1.193-.796-.788-.523-1.762-.853-2.725-1.195a31.1 31.1 0 0 0-3.272-.614c-1.127-.17-2.254-.33-3.107-.796-.492-.148-.854-.432-1.28-.66-.394-.273-.82-.5-1.15-.842-.405-.25-.657-.67-.974-1.012-.1-.228-.296-.364-.383-.614-.1-.046-.142-.182-.208-.262-.077-.1-.077-.273-.208-.307-.066.466-.044 1.024 0 1.502.055.205.077.455.13.66.033.182.197.478.13.614-3.414-.182-5.9-1.308-8.075-2.787-1.072-.74-2-1.638-2.845-2.605L7.24 24.017c-.34-.58-.624-1.24-.93-1.854-.503-1.33-.974-2.696-1.15-4.368-.23-1.56-.175-3.55.164-4.994.12-.796.372-1.467.6-2.16l.427-.967c.186-.273.284-.648.514-.887C7.48 7.57 8.4 6.66 9.362 5.784c1.03-.785 2.2-1.422 3.6-1.8 1.357-.32 3.206-.375 4.672-.046 2.976.637 5.22 2.025 7.1 3.8 1.904 1.74 3.37 3.948 4.377 6.632 1.04 2.548 1.4 6.52.47 9.408l-1.15-.66c-.46-.137-.908-.296-1.444-.353-.646-.01-1.28 0-1.696.216.842-.1 1.52.148 2.046.353.306.125.482.205.722.353.47.284.886.546 1.236.933.996.9 1.707 2.116 2.046 3.7 0 .046.055.034.044-.046.044-.01.066-.046.088-.1l.175-.216c.1-.137.22-.273.296-.444.23-.284.416-.603.6-.933.405-.614.7-1.32 1.06-2a21.73 21.73 0 0 0 1.4-4.732c.613-3.9-.12-7.577-1.4-10.296-1.313-2.742-3.15-4.937-5.526-6.587C25.692 1.342 22.9.136 19.04.022c-.022-.08-.055.01-.13 0-2.035-.068-3.677.228-5.307.66-.755.262-1.543.5-2.2.842-.766.262-1.38.694-2.08 1.012-.252.25-.635.375-.897.614-.34.17-.6.444-.93.614-.547.5-1.127.944-1.663 1.456-.525.5-.985 1.07-1.488 1.593-.077.182-.208.307-.34.444a1.47 1.47 0 0 1-.34.444c-.055.205-.23.284-.295.5-.142.114-.175.34-.34.444-.142.364-.394.626-.558.967-.197.33-.35.694-.547 1.012-.306.74-.635 1.456-.886 2.253-.263.774-.48 1.593-.635 2.48-.164.83-.317 1.9-.295 2.787-.1.32-.022.9 0 1.285 0 .068-.044.1-.044.136 0 .42.1.933.13 1.195.088.967.252 1.866.514 2.65.164.876.514 1.558.766 2.343.383.66.646 1.445 1.105 2.036.34.694.82 1.24 1.28 1.8.492.546.985 1.104 1.576 1.547C6.5 32.115 7.78 32.9 9.17 33.57c2.593 1.308 6.467 2.16 9.946 1.945.886-.125 1.784-.24 2.593-.444.744-.284 1.608-.455 2.506-.57 2.046-.136 3.82.057 5.394.535 1.598.444 2.976 1.115 4.17 2 .635.387 1.16.887 1.696 1.365.547.5.985 1.092 1.488 1.638.066.205.197.353.295.535.13.148.066.5.383.444.197-.205-.033-.5-.044-.75-.197-.216-.24-.5-.394-.683zM29.26 27.474c-.044 0-.055.034-.088.046-.077.17-.044.444 0 .614.23.5.306 1.126.8 1.33.24-.08.22-.444.208-.796-.1-.432-.263-.82-.514-1.104-.175-.068-.295-.182-.416-.1zm-2.976 1.24c0-.023-.033-.046-.044 0-.416-.057-.558.182-.766.353-.36 1 .22 1.957 1.236 1.945.405-.102.657-.375.722-.842-.055-.83-.394-1.365-1.15-1.456z"/></g><path d="M50.813 25.562c.164.717.514 1.23.908 1.706s.854.876 1.412 1.172a6.6 6.6 0 0 0 1.751.819c.317.114.624.25 1.018.296.274.16.602.24.624.648-.01.49-.328.67-.733.762-.405-.09-.908-.08-1.247-.24-.853-.102-1.543-.387-2.265-.648-1.38-.557-2.538-1.365-3.5-2.355-.197-.34-.47-.614-.678-.944s-.35-.728-.57-1.058c-1.685-.227-2.834-1.024-3.84-1.945-.93-1.104-1.674-2.423-1.98-4.175-.36-1.684-.252-3.788.175-5.415.93-3.15 2.878-5.244 6.554-5.53 1.018.034 1.904.16 2.714.478.82.307 1.597.876 2.2 1.468.055.045.077.057.11.114.13.193.45.466.624.705.033.046.022.125.055.182.066.102.164.148.23.24.033.057.022.125.055.17.044.068.1.17.164.296.022.046.098.08.11.114.098.193.142.432.23.648l.285.65c.22.67.36 1.468.45 2.287.22 2.366-.23 4.482-1.072 6.052-.394.82-.94 1.5-1.587 2.06-.59.648-1.4 1.035-2.2 1.445zM48.1 10.75c-.492.034-.788.273-1.193.41-.263.25-.59.444-.788.762-.328.193-.416.626-.678.876-.22.57-.427 1.206-.57 1.945-.13.728-.22 1.547-.23 2.355-.01 2.025.405 4.04 1.182 5.233a5.21 5.21 0 0 0 1.696 1.411c.394.034.7.17 1.127.182.24-.09.635 0 .788-.182.35.023.427-.216.733-.24.164-.17.34-.307.57-.4l.624-.705c.11-.17.175-.4.34-.535.985-1.957 1.094-5.54.45-7.815a7.06 7.06 0 0 0-.963-2.059c-.416-.444-.908-.82-1.466-1.115-.45-.102-.875-.228-1.466-.17-.033 0-.066.01-.055.057h-.1zM60.037 9.1c.886.034 1.926-.08 2.714.057.175.284.11.626.11.944v14.402c-.01.296.066.614-.11.887-.394.102-.963.057-1.466.057-.536 0-1.06.08-1.41-.114-.1-5.2-.1-10.83 0-16.052.022-.09.077-.148.164-.182zm6.784 0h2.66c.24.34.317.853.394 1.354l2.32 9.58c.175.023.12-.193.175-.296.077-.08.033-.273.11-.353.033-.262.186-.398.175-.705.197-.398.263-.944.45-1.354.23-.956.536-1.843.8-2.764.252-.956.59-1.82.788-2.82.372-.808.46-1.91.908-2.64h1.127c.405.796.558 1.854.908 2.708.23.956.547 1.82.788 2.765l1.64 5.53c.23-.353.23-.944.394-1.354.1-.466.186-.944.34-1.354.438-1.866.853-3.743 1.357-5.53.186-.933.372-1.888.678-2.708a8.8 8.8 0 0 1 2.32 0c.055.694-.252 1.445-.45 2.06-.11.75-.372 1.33-.514 2.06-.405 1.33-.71 2.742-1.127 4.06-.317 1.41-.744 2.708-1.072 4.118-.22.648-.372 1.365-.57 2.06-.22.637-.295 1.422-.624 1.945h-1.587c-.405-.74-.547-1.74-.908-2.526l-2.43-7.702c-.263.284-.263.865-.45 1.23-.12.444-.24.887-.394 1.297-.22.9-.547 1.66-.733 2.582-.317.808-.547 1.707-.788 2.594-.328.774-.45 1.763-.854 2.47-.416.137-1.072.023-1.587.057-.394-.466-.438-1.308-.678-1.945-.186-.66-.317-1.388-.558-2.002-.306-1.433-.766-2.696-1.072-4.118-.405-1.32-.755-2.696-1.127-4.06-.208-.65-.36-1.342-.57-2.002-.098-.705-.558-1.342-.394-2.116.022-.057.088-.09.153-.114zm22.333 0c.886.034 1.915-.08 2.714.057.197.614.11 1.274.11 1.934v12.343c0 .67.077 1.32-.11 1.945-.613.068-1.5.102-2.265.057-.22-.01-.48.057-.624-.114-.197-.614-.11-1.263-.11-1.945V11.16c0-.74-.066-1.456.11-1.945.044-.057.11-.09.175-.114z" fill="#0269b3"/></g><defs><clipPath id="A"><path fill="#fff" d="M0 0h92v41H0z"/></clipPath></defs></svg>
